X: 26193
T: McMahon's Fancy
R: reel
M: 4/4
K: Gmajor
|:G2 BG dGgG|G2 eG dBAB|G2 Bd- dega|bage dGBd:|
|:e3 B d2 Bd|eBge dBAB|eB- B2 dega|bage dGBd:|

